style-guide/assets/xd-icons-checkbox-empty-small.svg

<?xml version="1.0" encoding="UTF-8"?>
<svg width="18px" height="18px" viewBox="0 0 18 18" version="1.1" xmlns="http://www.w3.org/2000/svg" xmlns:xlink="http://www.w3.org/1999/xlink">
    <!-- Generator: Sketch 51.3 (57544) - http://www.bohemiancoding.com/sketch -->
    <title>check box empty</title>
    <desc>Created with Sketch.</desc>
    <defs></defs>
    <g id="check-box-empty" stroke="none" stroke-width="1" fill="none" fill-rule="evenodd">
        <path d="M3,15 L15,15 L15,3 L3,3 L3,15 Z M16,17 L2,17 C1.448,17 1,16.553 1,16 L1,2 C1,1.447 1.448,1 2,1 L16,1 C16.552,1 17,1.447 17,2 L17,16 C17,16.553 16.552,17 16,17 Z" id="Fill-1" fill="#000000"></path>
    </g>
</svg>

<svg viewBox="0 0 18 18" xmlns="http://www.w3.org/2000/svg">
  <path d="M3 15h12V3H3v12zm13 2H2a1 1 0 0 1-1-1V2a1 1 0 0 1 1-1h14a1 1 0 0 1 1 1v14a1 1 0 0 1-1 1z" fill="#000" fill-rule="evenodd"/>
</svg>
